X:872
T:Stewart's March, The
T:Gabhaidh Sinn an Rathad Mor
R:Country Dances
B:The Athole Collection
M:C|
L:1/8
K:A
e>fe>d c>d e2|B>cd>c B>c d2|e>fe>d c>d e>a|AA c>A B2A2:|
B|c>BA>B cA c2|d>cB>c dB d2|c>BA>B cA c>e|AA c>A B2 AB|
cA (3A>BA cA c2|dB (3B>cB dB d2|cA (3A>BA cA c>a|A>Bc>A B2A||

